front/public/static/landing/logos/dust/brand_ressources_logos.svg

<svg fill="none" height="1030" viewBox="0 0 1160 1030" width="1160" xmlns="http://www.w3.org/2000/svg" xmlns:xlink="http://www.w3.org/1999/xlink"><clipPath id="a"><path d="m686 780h363v91h-363z"/></clipPath><rect fill="#fff" height="1028" rx="11" width="1158" x="1" y="1"/><rect height="1028" rx="11" stroke="#eeeeef" stroke-width="2" width="1158" x="1" y="1"/><rect fill="#f7f7f7" height="386" rx="8" width="562" x="12" y="632"/><path clip-rule="evenodd" d="m156.375 871c25.06 0 45.375-20.371 45.375-45.5 0 25.129 20.315 45.5 45.375 45.5s45.375-20.371 45.375-45.5v45.5h45.375c12.53 0 22.687-10.186 22.687-22.75s-10.157-22.75-22.687-22.75h-45.375c0-25.129-20.315-45.5-45.375-45.5s-45.375 20.371-45.375 45.5c0-25.129-20.315-45.5-45.375-45.5s-45.375 20.371-45.375 45.5 20.315 45.5 45.375 45.5zm272.25-45.5h-45.375v45.5h45.375z" fill="#000" fill-opacity=".6" fill-rule="evenodd"/><path d="m156.375 871h-45.375v-91h45.375zm136.125-45.5h-90.75v-45.5h90.75zm181.5-45.5v45.5h-136.125c-12.53 0-22.687-10.186-22.687-22.75s10.157-22.75 22.687-22.75z" fill="#000"/><rect fill="#2a3241" height="386" rx="8" width="562" x="586" y="632"/><g clip-path="url(#a)" clip-rule="evenodd" fill="#fff" fill-rule="evenodd"><path d="m731.375 871c25.06 0 45.375-20.371 45.375-45.5 0 25.129 20.315 45.5 45.375 45.5s45.375-20.371 45.375-45.5v45.5h45.375c12.53 0 22.687-10.186 22.687-22.75s-10.157-22.75-22.687-22.75h-45.375c0-25.129-20.315-45.5-45.375-45.5s-45.375 20.371-45.375 45.5c0-25.129-20.315-45.5-45.375-45.5s-45.375 20.371-45.375 45.5 20.315 45.5 45.375 45.5zm272.245-45.5h-45.37v45.5h45.37z" fill-opacity=".6"/><path d="m686 780h45.375v91h-45.375zm90.75 0h90.75v45.5h-90.75zm136.125 45.5h136.125v-45.5h-136.125c-12.53 0-22.687 10.186-22.687 22.75s10.157 22.75 22.687 22.75z"/></g><path d="m492.5 323.5h-54.5v54.5h54.5z" fill="#fe9c1a"/><path d="m165.5 378c30.1 0 54.5-24.4 54.5-54.5s-24.4-54.5-54.5-54.5-54.5 24.4-54.5 54.5 24.4 54.5 54.5 54.5z" fill="#e2f78c"/><path d="m274.5 378c30.1 0 54.5-24.4 54.5-54.5s-24.4-54.5-54.5-54.5-54.5 24.4-54.5 54.5 24.4 54.5 54.5 54.5z" fill="#ffc3df"/><path d="m165.5 269h-54.5v109h54.5z" fill="#418b5c"/><path d="m329 269h-109v54.5h109z" fill="#e14322"/><path d="m547 269v54.5h-163.5c-15.05 0-27.25-12.2-27.25-27.25s12.2-27.25 27.25-27.25z" fill="#0c84fe"/><path clip-rule="evenodd" d="m329 378v-54.5h54.5c15.05 0 27.25 12.2 27.25 27.25s-12.2 27.25-27.25 27.25z" fill="#9fdbff" fill-rule="evenodd"/><path d="m914.75 313.5h-47.25v94.5h47.25z" fill="#fe9c1a"/><path d="m962 313.5v47.25h-141.75c-13.048 0-23.625-10.577-23.625-23.625s10.577-23.625 23.625-23.625z" fill="#3b82f6"/><path clip-rule="evenodd" d="m773 408v-47.25h47.25c13.048 0 23.625 10.577 23.625 23.625s-10.577 23.625-23.625 23.625z" fill="#9fdbff" fill-rule="evenodd"/><path d="m820.25 313.5c26.095 0 47.25-21.155 47.25-47.25s-21.155-47.25-47.25-47.25-47.25 21.155-47.25 47.25 21.155 47.25 47.25 47.25z" fill="#e2f78c"/><path d="m914.75 313.5c26.095 0 47.25-21.155 47.25-47.25s-21.155-47.25-47.25-47.25-47.25 21.155-47.25 47.25 21.155 47.25 47.25 47.25z" fill="#ffc3df"/><path d="m820.25 219h-47.25v94.5h47.25z" fill="#418b5c"/><path d="m962 219h-94.5v47.25h94.5z" fill="#e14322"/></svg>

<svg width="1160" height="1030" viewBox="0 0 1160 1030" fill="none" xmlns="http://www.w3.org/2000/svg">
<rect x="1" y="1" width="1158" height="1028" rx="11" fill="white"/>
<rect x="1" y="1" width="1158" height="1028" rx="11" stroke="#EEEEEF" stroke-width="2"/>
<rect x="12" y="632" width="562" height="386" rx="8" fill="#F7F7F7"/>
<path fill-rule="evenodd" clip-rule="evenodd" d="M156.375 871C181.435 871 201.75 850.629 201.75 825.5C201.75 850.629 222.065 871 247.125 871C272.185 871 292.5 850.629 292.5 825.5V871H337.875C350.405 871 360.562 860.814 360.562 848.25C360.562 835.686 350.405 825.5 337.875 825.5H292.5C292.5 800.371 272.185 780 247.125 780C222.065 780 201.75 800.371 201.75 825.5C201.75 800.371 181.435 780 156.375 780C131.315 780 111 800.371 111 825.5C111 850.629 131.315 871 156.375 871ZM428.625 825.5H383.25V871H428.625V825.5Z" fill="black" fill-opacity="0.6"/>
<path d="M156.375 871H111V780H156.375V871ZM292.5 825.5H201.75V780H292.5V825.5ZM474 780V825.5H337.875C325.345 825.5 315.188 815.314 315.188 802.75C315.188 790.186 325.345 780 337.875 780H474Z" fill="black"/>
<rect x="586" y="632" width="562" height="386" rx="8" fill="#2A3241"/>
<g clip-path="url(#clip0_2646_455)">
<path fill-rule="evenodd" clip-rule="evenodd" d="M731.375 871C756.435 871 776.75 850.629 776.75 825.5C776.75 850.629 797.065 871 822.125 871C847.185 871 867.5 850.629 867.5 825.5V871H912.875C925.405 871 935.562 860.814 935.562 848.25C935.562 835.686 925.405 825.5 912.875 825.5H867.5C867.5 800.371 847.185 780 822.125 780C797.065 780 776.75 800.371 776.75 825.5C776.75 800.371 756.435 780 731.375 780C706.315 780 686 800.371 686 825.5C686 850.629 706.315 871 731.375 871ZM1003.62 825.5H958.25V871H1003.62V825.5Z" fill="white" fill-opacity="0.6"/>
<path fill-rule="evenodd" clip-rule="evenodd" d="M686 780H731.375V871H686V780ZM776.75 780H867.5V825.5H776.75V780ZM912.875 825.5H1049V780H912.875C900.345 780 890.188 790.186 890.188 802.75C890.188 815.314 900.345 825.5 912.875 825.5Z" fill="white"/>
</g>
<path d="M492.5 323.5H438V378H492.5V323.5Z" fill="#FE9C1A"/>
<path d="M165.5 378C195.6 378 220 353.6 220 323.5C220 293.4 195.6 269 165.5 269C135.4 269 111 293.4 111 323.5C111 353.6 135.4 378 165.5 378Z" fill="#E2F78C"/>
<path d="M274.5 378C304.6 378 329 353.6 329 323.5C329 293.4 304.6 269 274.5 269C244.4 269 220 293.4 220 323.5C220 353.6 244.4 378 274.5 378Z" fill="#FFC3DF"/>
<path d="M165.5 269H111V378H165.5V269Z" fill="#418B5C"/>
<path d="M329 269H220V323.5H329V269Z" fill="#E14322"/>
<path d="M547 269V323.5H383.5C368.45 323.5 356.25 311.3 356.25 296.25C356.25 281.2 368.45 269 383.5 269H547Z" fill="#0C84FE"/>
<path fill-rule="evenodd" clip-rule="evenodd" d="M329 378V323.5H383.5C398.55 323.5 410.75 335.7 410.75 350.75C410.75 365.8 398.55 378 383.5 378H329Z" fill="#9FDBFF"/>
<path d="M914.75 313.5H867.5V408H914.75V313.5Z" fill="#FE9C1A"/>
<path d="M962 313.5V360.75H820.25C807.202 360.75 796.625 350.173 796.625 337.125C796.625 324.077 807.202 313.5 820.25 313.5H962Z" fill="#3B82F6"/>
<path fill-rule="evenodd" clip-rule="evenodd" d="M773 408V360.75H820.25C833.298 360.75 843.875 371.327 843.875 384.375C843.875 397.423 833.298 408 820.25 408H773Z" fill="#9FDBFF"/>
<path d="M820.25 313.5C846.345 313.5 867.5 292.345 867.5 266.25C867.5 240.155 846.345 219 820.25 219C794.155 219 773 240.155 773 266.25C773 292.345 794.155 313.5 820.25 313.5Z" fill="#E2F78C"/>
<path d="M914.75 313.5C940.845 313.5 962 292.345 962 266.25C962 240.155 940.845 219 914.75 219C888.655 219 867.5 240.155 867.5 266.25C867.5 292.345 888.655 313.5 914.75 313.5Z" fill="#FFC3DF"/>
<path d="M820.25 219H773V313.5H820.25V219Z" fill="#418B5C"/>
<path d="M962 219H867.5V266.25H962V219Z" fill="#E14322"/>
<defs>
<clipPath id="clip0_2646_455">
<rect width="363" height="91" fill="white" transform="translate(686 780)"/>
</clipPath>
</defs>
</svg>
